X:180
T:Mason's Apron (reel), The 
B:CRE2.211 (Praiscin an Mhasuin)
F:file ID: cre.2/180masons
M:C
R:reel
Q:180
K:A
cd|eaaA ABAF|EFAB cBAc|B2 B/A/B B2Ac|Bcde fece|
afec ABAG|FGAB cBAc|dcde f2af|edcB A2:|
AB|(3cBA eA (3cBA ea|(3cBA (3cBA afec|dc/d/ fd adfc|\
defg afdd|
(3cBA ea faed|(3cBA ce f2ec|Bcde f2af|ecBG A2:|

%%%

